X: 222
T: Aaron's Key
R: jig
M: 6/8
L: 1/8
K: Bmin
E|FBB Bcd|cAA ABc|dBB Bcd|edc BAG|
FBB Bcd|cAA ABc|dcd efg|fdB B2A|
F2B Bcd|cAA ABc|dBB Bcd|ede efg|
~f3 fed|c2A ABc|dcd ede|fdB B2c||
d3 def|ecA a2g|~f3 fed|cec ABc|
BAB cBc|dcd efg|fed cBA|1 B3 B2c:|2 B2B B2A|

